X:379
T:T Boinad agam
T:I Have a Bonnet Trimmed With Blue
B:Ceol Rince na hireann
Z:Nigel Gatherer
L:1/8
M:2/4
K:G
D | GA/B/ ce    | dG B2 | de/d/ cA | GB B>A  |
    GA/B/ ce    | dG B2 | de/d/ cA | AG G2  :|
    de/f/ gf/e/ | dG B2 | de/d/ cA | AG B2   |
    de/f/ gf/e/ | dG B2 | de/d/ cA | AG G2  :|
<end>
<start>
